X:55
T: amonn an chnuic, S.150
N: I0554
O: Irland
S: O'SULLIVAN, Donal: Song of the Irish]
N: Melismen
R: historisches Lied]
M: 4/4
L: 1/16
K: E
B,2C2 | E3FG2F2E4E2F2 | G2e2d2B2c4B2G2 | F4G2E2F6E2 | E8E4
B,3C | E3FG2F2E6F2 | G2e2d2B2c4B2G2 | F3GB3GF6E2 | E8E4
(3B2c2d2 | e3dc2B2f4e2e2 | d4c3BB4e2d2 | c2B2G2F2E3FG2B2 | c
B,2C2 | E3FG2F2E4E2F2 | G2e2d2B2c4B2G2 | F3GB2G2F6E2 | E8E4

@@@ Tune index: 7330
